assets/career-new/Group 319.svg

<svg xmlns="http://www.w3.org/2000/svg" xmlns:xlink="http://www.w3.org/1999/xlink" width="720" height="410" fill="none" xmlns:v="https://vecta.io/nano"><g filter="url(#A)"><path d="M197 228L739 227.998" stroke="url(#B)" stroke-width="10"/></g><g clip-path="url(#I)"><path d="M205 410c113.218 0 205-91.782 205-205S318.218 0 205 0 0 91.782 0 205s91.782 205 205 205z" fill="url(#C)"/><g fill-rule="evenodd"><path d="M208.438 136.594v29.007c0 11.578 5.22 21.947 13.432 28.876-13.095 1.705-24.849 7.707-33.797 16.545a5.13 5.13 0 0 0-.044 7.248 5.13 5.13 0 0 0 7.248.045c8.813-8.706 20.921-14.084 34.276-14.084h49.635c26.928 0 48.79 21.862 48.79 48.79v78.208a5.13 5.13 0 0 0 5.125 5.125 5.13 5.13 0 0 0 5.125-5.125v-78.208c0-29.981-22.396-54.773-51.357-58.544 8.212-6.929 13.432-17.298 13.432-28.876v-29.007c0-7.96-2.467-15.347-6.676-21.437l-.016-.023-.005-.008c-6.82-9.848-18.199-16.304-31.074-16.304h-16.323c-20.846 0-37.771 16.925-37.771 37.772zm10.25 12.031v16.976c0 15.189 12.332 27.521 27.521 27.521h16.323c15.19 0 27.521-12.332 27.521-27.521v-29.007a27.81 27.81 0 0 0-.099-2.357c-3.824 5.651-9.573 9.142-15.359 11.274-8.726 3.215-17.455 3.133-18.4 3.114h-37.507zm65.53-28.971c-5.038-6.439-12.882-10.582-21.686-10.582h-16.323c-15.189 0-27.521 12.332-27.521 27.522v1.781h37.562l.158.002s7.32.214 14.643-2.484c6.213-2.288 12.521-6.858 13.167-16.239z" fill="url(#D)"/><path d="M5.125 338.25h328a5.13 5.13 0 0 0 5.125-5.125 5.13 5.13 0 0 0-5.125-5.125h-328A5.13 5.13 0 0 0 0 333.125a5.13 5.13 0 0 0 5.125 5.125z" fill="url(#E)"/><path d="M105.904 328H5.125A5.13 5.13 0 0 0 0 333.125a5.13 5.13 0 0 0 5.125 5.125h100.779a5.13 5.13 0 0 0 5.125-5.125 5.13 5.13 0 0 0-5.125-5.125z" fill="#fff"/></g><path d="M210.5 215.25H79.438L97 335.883h135.786L210.5 215.25z" fill="url(#F)"/><g fill-rule="evenodd"><path d="M165.619 272.721c-1.775 5.009-7.283 7.635-12.292 5.859s-7.635-7.284-5.859-12.293 7.283-7.634 12.293-5.859c2.764.98 5.804-.468 6.784-3.233a5.32 5.32 0 0 0-3.234-6.785c-10.538-3.735-22.127 1.788-25.862 12.326s1.788 22.127 12.326 25.862 22.128-1.787 25.863-12.325a5.32 5.32 0 0 0-3.234-6.785 5.32 5.32 0 0 0-6.785 3.233z" fill="url(#G)"/><path d="M87.012 210.125a15.37 15.37 0 0 0-15.147 18.009l16.924 97.311c1.288 7.407 7.744 12.796 15.262 12.74l118.601-.882c4.522-.034 8.801-2.057 11.696-5.531s4.115-8.047 3.333-12.501l-16.919-96.428c-1.291-7.354-7.677-12.718-15.143-12.718H87.012zm0 10.25h118.606c2.488 0 4.617 1.788 5.048 4.239l16.918 96.428a5.12 5.12 0 0 1-1.111 4.167c-.965 1.158-2.391 1.833-3.899 1.844l-118.601.882c-2.506.019-4.657-1.777-5.087-4.246l-16.924-97.311c-.259-1.49.154-3.019 1.128-4.176a5.12 5.12 0 0 1 3.922-1.827z" fill="url(#H)"/><path d="M295.2 237.625h-34.85a5.13 5.13 0 0 0-5.125 5.125 5.13 5.13 0 0 0 5.125 5.125h34.85a5.13 5.13 0 0 0 5.125-5.125 5.13 5.13 0 0 0-5.125-5.125z" fill="#fff"/></g></g><defs><filter id="A" x="193" y="222.998" width="550" height="18.002" filterUnits="userSpaceOnUse" color-interpolation-filters="sRGB"><feFlood flood-opacity="0" result="A"/><feColorMatrix in="SourceAlpha" values="0 0 0 0 0 0 0 0 0 0 0 0 0 0 0 0 0 0 127 0" result="B"/><feOffset dy="4"/><feGaussianBlur stdDeviation="2"/><feComposite in2="B" operator="out"/><feColorMatrix values="0 0 0 0 0 0 0 0 0 0 0 0 0 0 0 0 0 0 0.25 0"/><feBlend in2="A"/><feBlend in="SourceGraphic"/></filter><linearGradient id="B" x1="-696.846" y1="-498.906" x2="1035.15" y2="79.537" xlink:href="#J"><stop stop-color="#fa8080"/><stop offset=".495" stop-color="#bf74bb"/><stop offset=".847" stop-color="#1f1f1f"/><stop offset="1" stop-color="#5a43de"/></linearGradient><linearGradient id="C" x1="72.059" y1="48.996" x2="359.076" y2="340.168" xlink:href="#J"><stop stop-color="#ff0cf5"/><stop offset="1" stop-color="#0575e6"/></linearGradient><linearGradient id="D" x1="342.35" y1="340.168" x2="210.125" y2="98.822" xlink:href="#J"><stop stop-color="#3aa0fe"/><stop offset="1" stop-color="#59fef4"/></linearGradient><linearGradient id="E" x1="0" y1="333.125" x2="320.825" y2="333.125" xlink:href="#J"><stop stop-color="#3aa0fe"/><stop offset="1" stop-color="#59fef4"/></linearGradient><linearGradient id="F" x1="-164.967" y1="229.983" x2="-164.967" y2="332.244" xlink:href="#J"><stop stop-color="#36ff78" stop-opacity=".8"/><stop offset="1" stop-color="#0cffff" stop-opacity=".15"/></linearGradient><linearGradient id="G" x1="150.391" y1="255.889" x2="167.466" y2="279.707" xlink:href="#J"><stop stop-color="#ff0cf5"/><stop offset="1" stop-color="#0575e6"/></linearGradient><linearGradient id="H" x1="71.751" y1="213.2" x2="224.476" y2="331.075" xlink:href="#J"><stop stop-color="#36ff78"/><stop offset="1" stop-color="#0cffff"/></linearGradient><clipPath id="I"><path fill="#fff" d="M0 0h410v410H0z"/></clipPath><linearGradient id="J" gradientUnits="userSpaceOnUse"/></defs></svg>

<svg width="720" height="410" viewBox="0 0 720 410" fill="none" xmlns="http://www.w3.org/2000/svg">
<g filter="url(#filter0_d_533_263)">
<path d="M197 228L739 227.998" stroke="url(#paint0_linear_533_263)" stroke-width="10"/>
</g>
<g clip-path="url(#clip0_533_263)">
<path d="M205 410C318.218 410 410 318.218 410 205C410 91.7816 318.218 0 205 0C91.7816 0 0 91.7816 0 205C0 318.218 91.7816 410 205 410Z" fill="url(#paint1_linear_533_263)"/>
<path fill-rule="evenodd" clip-rule="evenodd" d="M208.438 136.594V165.601C208.438 177.179 213.658 187.548 221.87 194.477C208.775 196.182 197.021 202.184 188.073 211.022C186.061 213.009 186.041 216.258 188.029 218.27C190.017 220.282 193.264 220.302 195.277 218.315C204.09 209.609 216.198 204.231 229.553 204.231H279.188C306.116 204.231 327.978 226.093 327.978 253.021V331.229C327.978 334.058 330.274 336.354 333.103 336.354C335.932 336.354 338.228 334.058 338.228 331.229V253.021C338.228 223.04 315.832 198.248 286.871 194.477C295.083 187.548 300.303 177.179 300.303 165.601V136.594C300.303 128.634 297.836 121.247 293.627 115.157L293.611 115.134L293.606 115.126C286.786 105.278 275.407 98.8223 262.532 98.8223H246.209C225.363 98.8223 208.438 115.747 208.438 136.594ZM218.688 148.625V165.601C218.688 180.79 231.02 193.122 246.209 193.122H262.532C277.722 193.122 290.053 180.79 290.053 165.601V136.594C290.053 135.799 290.02 135.013 289.954 134.237C286.13 139.888 280.381 143.379 274.595 145.511C265.869 148.726 257.14 148.644 256.195 148.625H218.688ZM284.218 119.654C279.18 113.215 271.336 109.072 262.532 109.072H246.209C231.02 109.072 218.688 121.404 218.688 136.594V138.375H256.25C256.302 138.375 256.356 138.376 256.408 138.377C256.408 138.377 263.728 138.591 271.051 135.893C277.264 133.605 283.572 129.035 284.218 119.654Z" fill="url(#paint2_linear_533_263)"/>
<path fill-rule="evenodd" clip-rule="evenodd" d="M5.125 338.25H333.125C335.954 338.25 338.25 335.954 338.25 333.125C338.25 330.296 335.954 328 333.125 328H5.125C2.296 328 0 330.296 0 333.125C0 335.954 2.296 338.25 5.125 338.25Z" fill="url(#paint3_linear_533_263)"/>
<path fill-rule="evenodd" clip-rule="evenodd" d="M105.904 328H5.125C2.296 328 0 330.296 0 333.125C0 335.954 2.296 338.25 5.125 338.25H105.904C108.732 338.25 111.029 335.954 111.029 333.125C111.029 330.296 108.732 328 105.904 328Z" fill="white"/>
<path d="M210.5 215.25H79.4375L97 335.883H232.786L210.5 215.25Z" fill="url(#paint4_linear_533_263)"/>
<path fill-rule="evenodd" clip-rule="evenodd" d="M165.619 272.721C163.844 277.73 158.336 280.356 153.327 278.58C148.317 276.805 145.692 271.296 147.468 266.287C149.243 261.278 154.751 258.653 159.761 260.428C162.525 261.408 165.565 259.96 166.545 257.195C167.525 254.43 166.076 251.39 163.311 250.41C152.773 246.675 141.184 252.198 137.449 262.736C133.713 273.274 139.237 284.863 149.775 288.598C160.314 292.334 171.903 286.811 175.638 276.273C176.618 273.508 175.168 270.468 172.404 269.488C169.639 268.508 166.599 269.957 165.619 272.721Z" fill="url(#paint5_linear_533_263)"/>
<path fill-rule="evenodd" clip-rule="evenodd" d="M87.0118 210.125C82.4731 210.125 78.167 212.13 75.2458 215.604C72.3245 219.076 71.0863 223.663 71.8643 228.134C76.0104 251.973 85.1893 304.754 88.7881 325.445C90.0765 332.852 96.532 338.241 104.05 338.185C128.004 338.007 195.045 337.508 222.651 337.303C227.173 337.269 231.452 335.246 234.347 331.772C237.242 328.298 238.462 323.725 237.68 319.271C233.531 295.626 224.358 243.34 220.761 222.843C219.47 215.489 213.084 210.125 205.618 210.125H87.0118ZM87.0118 220.375H205.618C208.106 220.375 210.235 222.163 210.666 224.614C214.261 245.111 223.436 297.399 227.584 321.042C227.845 322.527 227.439 324.052 226.473 325.209C225.508 326.367 224.082 327.042 222.574 327.053L103.973 327.935C101.467 327.954 99.3159 326.158 98.8864 323.689L81.9626 226.378C81.7033 224.888 82.1164 223.359 83.0901 222.202C84.0639 221.043 85.4989 220.375 87.0118 220.375Z" fill="url(#paint6_linear_533_263)"/>
<path fill-rule="evenodd" clip-rule="evenodd" d="M295.2 237.625H260.35C257.521 237.625 255.225 239.922 255.225 242.75C255.225 245.579 257.521 247.875 260.35 247.875H295.2C298.029 247.875 300.325 245.579 300.325 242.75C300.325 239.922 298.029 237.625 295.2 237.625Z" fill="white"/>
</g>
<defs>
<filter id="filter0_d_533_263" x="193" y="222.998" width="550" height="18.002" filterUnits="userSpaceOnUse" color-interpolation-filters="sRGB">
<feFlood flood-opacity="0" result="BackgroundImageFix"/>
<feColorMatrix in="SourceAlpha" type="matrix" values="0 0 0 0 0 0 0 0 0 0 0 0 0 0 0 0 0 0 127 0" result="hardAlpha"/>
<feOffset dy="4"/>
<feGaussianBlur stdDeviation="2"/>
<feComposite in2="hardAlpha" operator="out"/>
<feColorMatrix type="matrix" values="0 0 0 0 0 0 0 0 0 0 0 0 0 0 0 0 0 0 0.25 0"/>
<feBlend mode="normal" in2="BackgroundImageFix" result="effect1_dropShadow_533_263"/>
<feBlend mode="normal" in="SourceGraphic" in2="effect1_dropShadow_533_263" result="shape"/>
</filter>
<linearGradient id="paint0_linear_533_263" x1="-696.846" y1="-498.906" x2="1035.15" y2="79.5366" gradientUnits="userSpaceOnUse">
<stop stop-color="#FA8080"/>
<stop offset="0.494792" stop-color="#BF74BB"/>
<stop offset="0.846516" stop-color="#1F1F1F"/>
<stop offset="1" stop-color="#5A43DE"/>
</linearGradient>
<linearGradient id="paint1_linear_533_263" x1="72.0588" y1="48.9962" x2="359.076" y2="340.168" gradientUnits="userSpaceOnUse">
<stop stop-color="#FF0CF5"/>
<stop offset="1" stop-color="#0575E6"/>
</linearGradient>
<linearGradient id="paint2_linear_533_263" x1="342.35" y1="340.168" x2="210.125" y2="98.8223" gradientUnits="userSpaceOnUse">
<stop stop-color="#3AA0FE"/>
<stop offset="1" stop-color="#59FEF4"/>
</linearGradient>
<linearGradient id="paint3_linear_533_263" x1="0" y1="333.125" x2="320.825" y2="333.125" gradientUnits="userSpaceOnUse">
<stop stop-color="#3AA0FE"/>
<stop offset="1" stop-color="#59FEF4"/>
</linearGradient>
<linearGradient id="paint4_linear_533_263" x1="-164.967" y1="229.983" x2="-164.967" y2="332.244" gradientUnits="userSpaceOnUse">
<stop stop-color="#36FF78" stop-opacity="0.8"/>
<stop offset="1" stop-color="#0CFFFF" stop-opacity="0.15"/>
</linearGradient>
<linearGradient id="paint5_linear_533_263" x1="150.391" y1="255.889" x2="167.466" y2="279.707" gradientUnits="userSpaceOnUse">
<stop stop-color="#FF0CF5"/>
<stop offset="1" stop-color="#0575E6"/>
</linearGradient>
<linearGradient id="paint6_linear_533_263" x1="71.7505" y1="213.2" x2="224.476" y2="331.075" gradientUnits="userSpaceOnUse">
<stop stop-color="#36FF78"/>
<stop offset="1" stop-color="#0CFFFF"/>
</linearGradient>
<clipPath id="clip0_533_263">
<rect width="410" height="410" fill="white"/>
</clipPath>
</defs>
</svg>
